src/icons/category.svg

<svg width="21" height="21" viewBox="0 0 21 21" fill="none" xmlns="http://www.w3.org/2000/svg">
<path d="M9.26562 20.75C8.97917 20.75 8.73177 20.6458 8.52344 20.4375C8.34115 20.2552 8.25 20.0208 8.25 19.7344V11.3359C8.25 11.1016 8.32812 10.8932 8.48438 10.7109C8.64062 10.5286 8.83594 10.4115 9.07031 10.3594L19.5391 8.25H19.7344C20.0208 8.25 20.2552 8.35417 20.4375 8.5625C20.6458 8.74479 20.75 8.97917 20.75 9.26562V17.6641C20.75 17.8984 20.6719 18.1068 20.5156 18.2891C20.3594 18.4714 20.1641 18.5885 19.9297 18.6406L9.46094 20.75H9.26562ZM10.2422 12.1562V18.5234L18.7578 16.8438V10.4766L10.2422 12.1562ZM5.51562 17C5.22917 17 4.98177 16.9089 4.77344 16.7266C4.59115 16.5182 4.5 16.2708 4.5 15.9844V7.58594C4.5 7.35156 4.57812 7.14323 4.73438 6.96094C4.89062 6.77865 5.08594 6.66146 5.32031 6.60938L15.7891 4.5H15.9844C16.2708 4.5 16.5052 4.60417 16.6875 4.8125C16.8958 4.99479 17 5.22917 17 5.51562C17 6.03646 16.7266 6.36198 16.1797 6.49219L6.49219 8.40625V15.9844C6.49219 16.2708 6.40104 16.5182 6.21875 16.7266C6.03646 16.9089 5.80208 17 5.51562 17ZM1.76562 13.25C1.47917 13.25 1.23177 13.1589 1.02344 12.9766C0.841146 12.7682 0.75 12.5208 0.75 12.2344V3.83594C0.75 3.60156 0.828125 3.39323 0.984375 3.21094C1.14062 3.02865 1.33594 2.91146 1.57031 2.85938L12.0391 0.75H12.2344C12.5208 0.75 12.7552 0.854167 12.9375 1.0625C13.1458 1.24479 13.25 1.47917 13.25 1.76562C13.25 2.28646 12.9766 2.61198 12.4297 2.74219L2.74219 4.65625V12.2344C2.74219 12.5208 2.65104 12.7682 2.46875 12.9766C2.28646 13.1589 2.05208 13.25 1.76562 13.25Z" />
</svg>

<svg width="21" height="21"><path d="M9.266 20.75c-.287 0-.534-.104-.743-.313a.952.952 0 0 1-.273-.703v-8.398c0-.234.078-.443.234-.625.157-.182.352-.3.586-.352L19.54 8.25h.194c.287 0 .521.104.703.313a.892.892 0 0 1 .313.703v8.398a.933.933 0 0 1-.234.625c-.157.182-.352.3-.586.352L9.46 20.75h-.194Zm.976-8.594v6.367l8.516-1.68v-6.366l-8.516 1.68ZM5.516 17a1.09 1.09 0 0 1-.743-.273 1.09 1.09 0 0 1-.273-.743V7.586c0-.234.078-.443.234-.625.157-.182.352-.3.586-.352L15.79 4.5h.194c.287 0 .521.104.704.313a.892.892 0 0 1 .312.703c0 .52-.273.846-.82.976L6.492 8.406v7.578c0 .287-.091.534-.273.743a.952.952 0 0 1-.703.273Zm-3.75-3.75a1.09 1.09 0 0 1-.743-.273 1.09 1.09 0 0 1-.273-.743V3.836c0-.234.078-.443.234-.625.157-.182.352-.3.586-.352L12.04.75h.194c.287 0 .521.104.704.313a.892.892 0 0 1 .312.703c0 .52-.273.846-.82.976L2.742 4.656v7.578c0 .287-.091.534-.273.743a.952.952 0 0 1-.703.273Z"/></svg>
